src/assets/images/rising-line.svg

<svg viewBox="0 0 92.103 78" xmlns="http://www.w3.org/2000/svg"><g transform="translate(.003)"><path d="m87.9 78h-86v-5.7l11.5-13.5 12.3 8.2 19.9-27.9 18.1 14.3 24.3-35v59.6z" fill="#6fc68e"/><path d="m1.9 58.6 10.9-12.8 11.7 8 20.4-28 17.9 14.3 27.1-38.3" fill="none" stroke="#1f4e46" stroke-miterlimit="10" stroke-width="5"/></g></svg>

<svg xmlns="http://www.w3.org/2000/svg" viewBox="0 0 92.103 78">
  <defs>
    <style>
      .cls-1 {
        fill: #6fc68e;
      }

      .cls-2, .cls-3 {
        fill: none;
        stroke: #1f4e46;
        stroke-miterlimit: 10;
      }

      .cls-2 {
        stroke-width: 5px;
      }

      .cls-3 {
        stroke-width: 5.289px;
      }
    </style>
  </defs>
  <g id="Groupe_53" data-name="Groupe 53" transform="translate(0.003)">
    <path id="Tracé_508" data-name="Tracé 508" class="cls-1" d="M87.9,78H1.9V72.3L13.4,58.8,25.7,67,45.6,39.1,63.7,53.4,88,18.4V78Z"/>
    <path id="Tracé_509" data-name="Tracé 509" class="cls-2" d="M1.9,58.6,12.8,45.8l11.7,8,20.4-28L62.8,40.1,89.9,1.8"/>
    <path id="Tracé_510" data-name="Tracé 510" class="cls-3" d="M91.7,10.9"/>
    <path id="Tracé_511" data-name="Tracé 511" class="cls-3" d="M92.1,0"/>
  </g>
</svg>
